flaticon/science/biohazard.svg

<svg xmlns="http://www.w3.org/2000/svg" width="32" height="32" viewBox="0 0 24 24">
    <path d="M 17.792969 9.929688 C 17.496094 9.929688 17.199219 9.957031 16.90625 10.003906 C 17.742188 8.925781 18.207031 7.59375 18.207031 6.207031 C 18.25 4.511719 17.585938 2.9375 16.34375 1.820312 C 16.179688 1.65625 15.929688 1.65625 15.765625 1.820312 C 15.601562 1.984375 15.601562 2.234375 15.765625 2.398438 C 16.800781 3.394531 17.335938 4.757812 17.335938 6.207031 C 17.304688 7.410156 16.925781 8.527344 16.203125 9.464844 C 15.21875 8.234375 13.707031 7.449219 12 7.449219 C 10.277344 7.449219 8.75 8.25 7.769531 9.5 C 6.128906 7.28125 6.234375 4.199219 8.152344 2.359375 C 8.316406 2.191406 8.316406 1.945312 8.152344 1.78125 C 7.984375 1.613281 7.738281 1.613281 7.574219 1.78125 C 5.386719 3.886719 5.226562 7.453125 7.125 10.007812 C 6.820312 9.957031 6.511719 9.929688 6.207031 9.929688 C 2.773438 9.929688 0 12.703125 0 16.136719 C 0 16.386719 0.164062 16.550781 0.414062 16.550781 C 0.664062 16.550781 0.828125 16.386719 0.828125 16.136719 C 0.828125 13.160156 3.226562 10.757812 6.207031 10.757812 C 6.472656 10.757812 6.738281 10.78125 7.003906 10.828125 C 6.757812 11.445312 6.621094 12.121094 6.621094 12.828125 C 6.621094 15.546875 8.617188 17.78125 11.230469 18.152344 C 10.464844 20.144531 8.53125 21.515625 6.207031 21.515625 C 5.957031 21.515625 5.792969 21.683594 5.792969 21.929688 C 5.792969 22.179688 5.957031 22.34375 6.207031 22.34375 C 8.878906 22.34375 11.109375 20.753906 12 18.460938 C 12.890625 20.753906 15.121094 22.34375 17.792969 22.34375 C 18.042969 22.34375 18.207031 22.179688 18.207031 21.929688 C 18.207031 21.683594 18.042969 21.515625 17.792969 21.515625 C 15.460938 21.515625 13.523438 20.136719 12.761719 18.152344 C 15.378906 17.785156 17.378906 15.546875 17.378906 12.828125 C 17.378906 12.117188 17.242188 11.441406 16.996094 10.824219 C 17.261719 10.78125 17.527344 10.757812 17.792969 10.757812 C 20.773438 10.757812 23.171875 13.160156 23.171875 16.136719 C 23.171875 16.386719 23.339844 16.550781 23.585938 16.550781 C 23.835938 16.550781 24 16.386719 24 16.136719 C 24 12.703125 21.226562 9.929688 17.792969 9.929688 Z M 12 8.277344 C 13.496094 8.277344 14.816406 8.988281 15.644531 10.09375 C 15.421875 10.320312 15.171875 10.523438 14.902344 10.699219 C 14.773438 10.769531 14.648438 10.847656 14.527344 10.925781 C 14.191406 11.105469 13.835938 11.25 13.46875 11.359375 C 13.097656 10.988281 12.578125 10.757812 12 10.757812 C 11.992188 10.757812 11.988281 10.757812 11.980469 10.757812 C 11.972656 10.757812 11.964844 10.757812 11.957031 10.757812 C 11.421875 10.757812 10.882812 10.964844 10.511719 11.378906 C 10.238281 11.304688 9.972656 11.207031 9.71875 11.09375 C 9.417969 10.878906 9.101562 10.691406 8.773438 10.53125 C 8.613281 10.410156 8.457031 10.28125 8.320312 10.140625 C 9.144531 9.007812 10.480469 8.277344 12 8.277344 Z M 12 14.070312 C 11.96875 14.070312 11.9375 14.066406 11.902344 14.066406 C 11.871094 14.050781 11.832031 14.039062 11.792969 14.027344 C 11.40625 13.976562 11.097656 13.761719 10.921875 13.460938 C 10.921875 13.457031 10.921875 13.457031 10.921875 13.457031 C 10.90625 13.429688 10.890625 13.398438 10.875 13.367188 C 10.875 13.363281 10.871094 13.359375 10.867188 13.351562 C 10.859375 13.328125 10.847656 13.304688 10.839844 13.28125 C 10.835938 13.273438 10.832031 13.261719 10.828125 13.253906 C 10.820312 13.230469 10.8125 13.203125 10.804688 13.179688 C 10.804688 13.167969 10.800781 13.160156 10.796875 13.152344 C 10.792969 13.125 10.785156 13.09375 10.78125 13.066406 C 10.777344 13.058594 10.777344 13.050781 10.777344 13.042969 C 10.769531 13.011719 10.765625 12.980469 10.765625 12.949219 C 10.761719 12.941406 10.761719 12.9375 10.761719 12.929688 C 10.761719 12.898438 10.757812 12.863281 10.757812 12.828125 C 10.757812 12.703125 10.800781 12.539062 10.839844 12.414062 C 10.851562 12.382812 10.859375 12.351562 10.863281 12.316406 C 10.886719 12.257812 10.917969 12.199219 10.953125 12.148438 C 10.972656 12.128906 10.992188 12.105469 11.007812 12.082031 C 11.253906 11.75 11.628906 11.585938 12 11.585938 C 12.371094 11.585938 12.746094 11.75 12.992188 12.082031 C 13.007812 12.105469 13.027344 12.128906 13.046875 12.144531 C 13.085938 12.207031 13.117188 12.269531 13.144531 12.335938 C 13.148438 12.359375 13.152344 12.386719 13.160156 12.414062 C 13.199219 12.578125 13.242188 12.703125 13.242188 12.828125 C 13.242188 12.863281 13.238281 12.898438 13.238281 12.929688 C 13.238281 12.9375 13.234375 12.941406 13.234375 12.949219 C 13.234375 12.980469 13.230469 13.011719 13.222656 13.042969 C 13.222656 13.050781 13.222656 13.058594 13.21875 13.066406 C 13.214844 13.09375 13.207031 13.125 13.203125 13.152344 C 13.199219 13.160156 13.195312 13.167969 13.195312 13.179688 C 13.1875 13.203125 13.179688 13.230469 13.171875 13.253906 C 13.167969 13.261719 13.164062 13.269531 13.160156 13.28125 C 13.152344 13.304688 13.140625 13.328125 13.132812 13.351562 C 13.128906 13.359375 13.125 13.363281 13.125 13.367188 C 13.109375 13.398438 13.09375 13.429688 13.078125 13.457031 C 13.078125 13.457031 13.078125 13.457031 13.078125 13.460938 C 12.902344 13.761719 12.59375 13.976562 12.207031 14.027344 C 12.167969 14.039062 12.128906 14.050781 12.097656 14.066406 C 12.0625 14.066406 12.03125 14.070312 12 14.070312 Z M 7.449219 12.828125 C 7.449219 12.191406 7.578125 11.585938 7.808594 11.039062 C 8.035156 11.117188 8.257812 11.210938 8.472656 11.320312 C 8.679688 11.464844 8.898438 11.59375 9.128906 11.710938 C 9.425781 11.917969 9.710938 12.152344 9.972656 12.414062 C 9.96875 12.417969 9.96875 12.421875 9.96875 12.425781 C 9.929688 12.550781 9.929688 12.707031 9.929688 12.828125 C 9.929688 12.859375 9.933594 12.890625 9.933594 12.917969 C 9.933594 12.945312 9.9375 12.972656 9.9375 12.996094 C 10.003906 13.863281 10.585938 14.566406 11.386719 14.808594 C 11.507812 15.289062 11.585938 15.734375 11.585938 16.222656 C 11.585938 16.609375 11.546875 16.988281 11.46875 17.347656 C 9.199219 17.085938 7.449219 15.171875 7.449219 12.828125 Z M 16.550781 12.828125 C 16.550781 15.175781 14.800781 17.089844 12.523438 17.347656 C 12.453125 17 12.414062 16.636719 12.414062 16.261719 C 12.414062 15.765625 12.496094 15.269531 12.621094 14.8125 C 12.683594 14.792969 12.746094 14.765625 12.808594 14.738281 C 13.507812 14.449219 14 13.792969 14.0625 12.996094 C 14.0625 12.972656 14.066406 12.945312 14.066406 12.917969 C 14.066406 12.890625 14.070312 12.859375 14.070312 12.828125 C 14.070312 12.707031 14.070312 12.550781 14.03125 12.425781 C 14.03125 12.421875 14.03125 12.417969 14.027344 12.414062 C 14.292969 12.136719 14.578125 11.898438 14.878906 11.6875 C 15.097656 11.574219 15.3125 11.449219 15.519531 11.308594 C 15.734375 11.199219 15.957031 11.105469 16.183594 11.027344 C 16.421875 11.578125 16.550781 12.1875 16.550781 12.828125 Z M 16.550781 12.828125"/>
</svg>

<svg xmlns="http://www.w3.org/2000/svg" width="32" height="32" viewBox="0 0 24 24">
    <path d="M17.793 9.93a5.62 5.62 0 0 0-.887.074 6.194 6.194 0 0 0 1.301-3.797c.043-1.695-.621-3.27-1.863-4.387a.401.401 0 0 0-.578 0 .401.401 0 0 0 0 .578c1.035.997 1.57 2.36 1.57 3.809-.031 1.203-.41 2.32-1.133 3.258A5.359 5.359 0 0 0 12 7.449c-1.723 0-3.25.801-4.23 2.051-1.641-2.219-1.536-5.3.382-7.14a.401.401 0 0 0 0-.579.395.395 0 0 0-.578 0c-2.187 2.106-2.347 5.672-.449 8.227a5.601 5.601 0 0 0-.918-.078A6.2 6.2 0 0 0 0 16.137c0 .25.164.414.414.414.25 0 .414-.164.414-.414a5.369 5.369 0 0 1 5.379-5.38c.266 0 .531.024.797.071a5.392 5.392 0 0 0-.383 2 5.365 5.365 0 0 0 4.61 5.324c-.766 1.993-2.7 3.364-5.024 3.364-.25 0-.414.168-.414.414 0 .25.164.414.414.414 2.672 0 4.902-1.59 5.793-3.883.89 2.293 3.121 3.883 5.793 3.883.25 0 .414-.164.414-.414 0-.246-.164-.414-.414-.414-2.332 0-4.27-1.38-5.031-3.364a5.365 5.365 0 0 0 4.617-5.324c0-.71-.137-1.387-.383-2.004.266-.043.531-.066.797-.066a5.369 5.369 0 0 1 5.379 5.379c0 .25.168.414.414.414.25 0 .414-.164.414-.414a6.2 6.2 0 0 0-6.207-6.207zM12 8.277c1.496 0 2.816.711 3.645 1.817-.223.226-.473.43-.743.605-.129.07-.254.149-.375.227-.336.18-.691.324-1.058.433A2.068 2.068 0 0 0 12 10.758h-.043c-.535 0-1.074.207-1.445.62a5.466 5.466 0 0 1-.793-.284 6.626 6.626 0 0 0-.946-.563 3.97 3.97 0 0 1-.453-.39A4.527 4.527 0 0 1 12 8.277zm0 5.793c-.031 0-.063-.004-.098-.004a.713.713 0 0 0-.109-.039 1.169 1.169 0 0 1-.871-.566v-.004c-.016-.027-.031-.059-.047-.09 0-.004-.004-.008-.008-.015-.008-.024-.02-.047-.027-.07l-.012-.028-.023-.074c0-.012-.004-.02-.008-.028-.004-.027-.012-.058-.016-.086-.004-.007-.004-.015-.004-.023a.385.385 0 0 1-.011-.094c-.004-.008-.004-.011-.004-.02 0-.03-.004-.066-.004-.1 0-.126.043-.29.082-.415a.397.397 0 0 0 .023-.098.865.865 0 0 1 .09-.168.45.45 0 0 0 .055-.066c.246-.332.62-.496.992-.496.371 0 .746.164.992.496a.286.286 0 0 0 .055.063c.039.062.07.125.098.19.003.024.007.052.015.08.04.163.082.288.082.413 0 .035-.004.07-.004.102 0 .008-.004.011-.004.02a.385.385 0 0 1-.011.093c0 .008 0 .016-.004.023-.004.028-.012.059-.016.086-.004.008-.008.016-.008.028l-.023.074-.012.027c-.008.024-.02.047-.027.07-.004.008-.008.012-.008.016-.016.031-.031.063-.047.09v.004c-.176.3-.484.516-.871.566a.713.713 0 0 0-.11.04c-.034 0-.066.003-.097.003zm-4.55-1.242a4.6 4.6 0 0 1 .359-1.789c.226.078.449.172.664.281.207.145.425.274.656.39.297.208.582.442.844.704-.004.004-.004.008-.004.012-.04.125-.04.281-.04.402 0 .031.005.063.005.09 0 .027.004.055.004.078.066.867.648 1.57 1.449 1.813.12.48.199.925.199 1.414 0 .386-.04.765-.117 1.125a4.537 4.537 0 0 1-4.02-4.52zm9.1 0a4.532 4.532 0 0 1-4.027 4.52c-.07-.348-.109-.711-.109-1.086 0-.496.082-.992.207-1.45.063-.019.125-.046.188-.074a2.04 2.04 0 0 0 1.254-1.742c0-.023.003-.05.003-.078 0-.027.004-.059.004-.09 0-.121 0-.277-.039-.402 0-.004 0-.008-.004-.012.266-.277.551-.516.852-.726.219-.114.434-.239.64-.38.215-.109.438-.203.665-.28.238.55.367 1.16.367 1.8zm0 0"/>
</svg>
